X:1
T:E minor James P. Carrell, 1821
T:Unknown Author 11 11. 11 11. 11 11.
T:Protection
T:Transcribed from Songs of Zion, 1821
%%score [ 1 2 3 4 ]
L:1/8
M:3/4
K:G
V:1 treble nm="Tr." snm="Tr."
V:2 treble nm="C." snm="C."
V:3 treble-8 nm="T." snm="T."
V:4 bass nm="B." snm="B."
V:1
"^1. Tis  Jesus  pro– tects me,  my  fears  now remove,  And let me enjoy the sweet smiles of my love; Though pressed with temp–" B2 | %1
 B2[Q:1/4=100] d2 e2 | B2 B3 G | A2 A2 dc | B4 GA | B2 e2 d2 | e2 f2 ed | B2 B2 d2 | e4 gf | %9
 e2 ed B2 | %10
"^1. –ta–tion, the tempter shall fly  Where faith in its power bids  Jesus draw nigh; O come, blessed  Je – sus,  and    enter   my" d2 d3 d | %11
 e2 B2 Bc | d4 ef | g2 g2 ed | e2 B2 A2 | B2 e2 d2 | e4 e2 | B2 B2 A2 | Bc d2 ef | g2 e2 de | %20
"^1. heart,  And  sorrow  and   sighing   shall  quickly  de – part." d4 gf | e2 e2 fe | d2 d2 ef | %23
 g2 f2 d2 | e6 |] %25
V:2
"^2. When Jesus was  tempted  and  tried like  a   man,  The  ma – lice  of    Satan  was    vented  in  vain;  And    I,   by   the" E2 | %1
 E2 F2 ED | E2 G3 E | F2 A2 F2 | E4 E2 | G2 E2 D2 | G2 F2 E2 | E2 E2 D2 | E4 GF | E2 E2 B2 | %10
"^2. power of   faith  in  the  Lamb, May silence the tempter and put him to shame. O come, blessed  Je–sus,  and    enter   my" G2 G3 A | %11
 B2 B2 AG | F4 BA | G2 E2 E2 | E2 E2 F2 | G2 G2 F2 | E4 E2 | E2 E2 A2 | G2 A2 G2 | B2 B2 AG | %20
"^2. heart,  And  sorrow  and   sighing   shall  quickly  de – part." F4 EF | G2 E2 F2 | G2 A2 B2 | %23
 B2 F2 F2 | E6 |] %25
V:3
"^3. Hard combats, a – las! in  the  field  are  at  hand:  Ten  thousand as – sai–lants be–fore us do stand;    But   vic–tory    is" E2 | %1
 G2 A2 B2 | G2 E3 B | c2 c2 BA | B4 Bd | e2 dc B2 | G2 A2 c2 | B2 e2 d2 | e4 Bd | e2 B2 G2 | %10
"^3. sure on the side of  our  King, And  they  that  trust  in  him  shall victory sing; O come, blessed  Je – sus, and   enter   my" d2 B3 A | %11
 G2 G2 FG | A4 B2 | c2 B2 AG | E2 G2 A2 | G2 E2 F2 | E4 B2 | dc B2 e2 | B2 A2 G2 | E2 G2 AG | %20
"^3. heart,  And  sorrow  and   sighing   shall  quickly  de – part." F4 GA | B2 e2 d2 | g2 f2 ed | %23
 B2 d2 d2 | e6 |] %25
V:4
"^4. Here, faith on the one hand gives strength to the soul;  And  love  on  the  other  the passions control;  The    an–chor   of" E,2 | %1
 G,2 F,2 E,D, | B,,2 E,3 E, | F,2 E,2 D,2 | E,4 B,A, | G,2 A,2 B,2 | E,2 D,2 E,F, | G,2 E,2 B,2 | %8
 E,4 G,2 | A,2 B,2 B,2 | %10
"^4. hope, when it  is  fixed  secure, The  waves of temptation whall  safely endure. O come, blessed  Je – sus,  and    enter   my" G,2 G,3 F, | %11
 E,2 E,2 F,E, | D,4 B,,2 | E,2 E,2 G,A, | B,2 B,2 F,2 | G,2 B,2 B,,2 | E,4 E,2 | B,,2 B,,2 E,2 | %18
 G,2 F,2 G,2 | E,2 E,2 B,,C, | %20
"^4. heart,  And  sorrow  and   sighing   shall  quickly  de – part." D,4 G,F, | E,2 B,2 B,2 | %22
 G,2 A,2 G,F, | E,2 D,2 B,,2 | E,6 |] %25

